X:1
T:Eram quasi agnus - Victoria
T:#
%%score [ 1 2 3 4 ]
L:1/8
Q:1/4=200
M:none
K:F
V:1 treble nm="Soprano"
V:2 treble nm="Alto"
V:3 treble-8 nm="Tenor"
V:4 bass nm="Bass"
V:1
"^Eram quasi agnus""^Tomas Luis de Victoria\n(1548-1611)" B16 | A8 =B8- | B4 =B4 B8 | c8 d8- | %4
w: E-|ram qua\-|* si a-|gnus in\-|
 d4 ^c4 d8- |[M:4/2] d8 z8 | z8 d8- | d4 c4 B4 A4 | G4 F4 (!courtesy!=E2 F2 G4- | G4 ^F4) G4 d4 | %10
w: * no- cens:||du\-|* ctus sum ad|im- mo- lan\- * *|* * dum, et|
 d4 c4 B8 | A4 A4 B4 F4 | (G8 A8) | B4 d4 d6 d2 | d4 d4 _e8 | d4 d8 B4 | c8 A4 B4- | %17
w: ne- sci- e-|bam, et ne- sci-|e\- *|bam: con- si- li-|um fe- ce-|runt i- ni-|mi- ci me\-|
 (B4 A2 G2 A8) | =B8 z8 | z4 d4 d4 d4 | (c6 B2 A4) F4 | (A4 B4 c4 A4) | (B2 c2 d8 c4) | d16 || %24
w: |i|ad- ver- sum|me, * * di-|cen\- * * *||tes:|
 G8 d8 | B4 G4 A4 A4 | B8 A8 | z8 z4 d4 | g8 f4 d4 | d4 e4 (f8- | f4 e2 d2 c4 d4- | d4 c4) d8 | %32
w: Ve- ni-|te, mit- ta- mus|li- gnum,|ve-|ni- te, mit-|ta- mus li\-||* * gnum|
 z16 | z4 d4 d4 d4 | d12 d4 | c8 d8 | z4 d4 d8 | c4 =B4 c4 A4 | =B16 ||"^Trio" d12 d4 | %40
w: |et e- ra-|da- mus|e- um|de ter-|ra vi- ven- ti-|um.|O- mnes|
 B4 G4 A4 =B4 | c8 _B4 d4 | d4 d4 c4 f4- | f4 f4 e4 d4 | c12 =B4 | (c4 d8 ^c4) | d4 A4 A4 A4 | %47
w: i- ni- mi- ci|me- i ad-|ver- sum me co\-|* gi- ta- bant|ma- la|mi\- * *|hi: ver- bum i-|
 (B16 | c8) d8 | z4 d8 d4 | d8 c4 A4 | c6 c2 c4 A4 | (B4 A2 G2 A8) | =B16 || G8 d8 | B4 G4 A4 A4 | %56
w: ni\-|* quum|man- da-|ve- runt ad-|ver- sum me, di-|cen\- * * *|tes:|Ve- ni-|te, mit- ta- mus|
 B8 A8 | z8 z4 d4 | g8 f4 d4 | d4 e4 (f8- | f4 e2 d2 c4 d4- | d4 c4) d8 | z16 | z4 d4 d4 d4 | %64
w: li- gnum,|ve-|ni- te, mit-|ta- mus li\-||* * gnum||et e- ra-|
 d12 d4 |[Q:1/4=197] c8[Q:1/4=192] d8 |[Q:1/4=188] z4[Q:1/4=185] d4[Q:1/4=181] d8 | %67
w: da- mus|e- um|de ter-|
[Q:1/4=178] c4[Q:1/4=175] =B4[Q:1/4=173] c4[Q:1/4=171] A4 |[Q:1/4=170] =B16 |] %69
w: ra vi- ven- ti-|um.|
V:2
 G16 | ^F8 G8- | G4 G4 G8 | A4 A8 G4 | A8 z4 A4- |[M:4/2] A4 G4 F4 !courtesy!=E4 | D4 C4 (B,4 A,4 | %7
w: E-|ram qua\-|* si a-|gnus in- no-|cens: du\-|* ctus sum ad|im- mo- lan\- *|
 G,8) D8 | z16 | z4 A4 B8- | B4 A4 G8- | (G4 ^F4 G4 A4- | A2 G2 G8 ^F4) | G4 B4 A6 A2 | A4 =B4 c8 | %15
w: * dum,||et ne\-|* sci- e\-|||bam: con- si- li-|um fe- ce-|
 A8 B8 | G4 A8 F4 | (G12 ^F4) | G8 z8 | z4 D4 F4 G4 | A4 E4 F2 (G2 A4- | A4 G2 F2 E4 ^F4) | G16 | %23
w: runt i-|ni- mi- ci|me\- *|i|ad- ver- sum|me, di- cen- * *|||
 ^F16 || z8 D8 | G8 F4 D4 | D4 E4 (F8- | F4 E2 D2 C4 D4-) | (D4 C4) D4 A4 | (B8 A4) F4 | %30
w: tes:|Ve-|ni- te, mit-|ta- mus li\-||* * gnum, mit-|ta\- * mus|
 (F4 G4 A6 F2 | G8) ^F4 A4 | A4 A4 B8 | A4 B4 B4 B4 | B8 F4 (B4- | B4 A4) B4 F4 | B8 F4 G4 | %37
w: li\- * * *|* gnum in|pa- nem e-|ius, et e- ra-|da- mus e\-|* * um de|ter- ra vi-|
 (A4 G8) ^F4 | G16 || z8 G8- | G4 G4 F4 D4 | E4 ^F4 G8 | ^F4 A4 A4 A4 | (=F2 G2 A2 F2 G4) A4- | %44
w: ven\- * ti-|um.|O-|* mnes i- ni-|mi- ci me-|i ad- ver- sum|me\- * * * * co\-|
 A4 A4 G4 F4 | E4 D4 E8 | ^F8 z4 =F4 | F4 F4 G8- | G8 A4 B4- | B4 B4 B8 | A4 F4 A6 A2 | %51
w: * gi- ta- bant|ma- la mi-|hi: ver-|bum i- ni\-|* quum man\-|* da- ve-|runt ad- ver- sum|
 A4 G4 (A6 G2 | F4 G8 ^F4) | G16 || z8 D8 | G8 F4 D4 | D4 E4 (F8- | F4 E2 D2 C4 D4- | %58
w: me, di- cen\- *||tes:|Ve-|ni- te, mit-|ta- mus li\-||
 D4 C4) D4 A4 | (B8 A4) F4 | (F4 G4 A6 F2 | G8) ^F4 A4 | A4 A4 B8 | A4 B4 B4 B4 | B8 F4 (B4- | %65
w: * * gnum, mit-|ta\- * mus|li\- * * *|* gnum in|pa- nem e-|ius, et e- ra-|da- mus e\-|
 B4 A4) B4 F4 | B8 F4 G4 | (A4 G8) ^F4 | G16 |] %69
w: * * um de|ter- ra vi-|ven\- * ti-|um.|
V:3
 d16 | d8 d8- | d4 d4 d8 | f4 (f8 e2 d2 | e4) e4 d8 |[M:4/2][K:treble-8] z16 | z16 | g12 f4 | %8
w: E-|ram qua\-|* si a-|gnus in\- * *|* no- cens:|||du- ctus|
 _e4 d4 c4 B4 | A8 G4 g4 | f4 f4 d8 | d8 z4 d4 | _e4 B4 c4 d4 | G4 g4 ^f6 f2 | ^f4 f4 g8 | ^f8 g8 | %16
w: sum ad im- mo-|lan- dum, et|ne- sci- e-|bam, et|ne- sci- e- *|bam: con- si- li-|um fe- ce-|runt i-|
 e4 =f8 d4 | _e8 d8 | z4 g4 g4 g4 | f4 f4 d8 | e8 z4 d4 | d4 d4 c4 c4 | (d2 c2 B2 A2 G8) | A16 || %24
w: ni- mi- ci|me- i|ad- ver- sum|me di- cen-|tes, ad-|ver- sum me, di-|cen\- * * * *|tes:|
 z16 | G8 d8 | B4 G4 A4 A4 | B8 A8 | z8 z4 d4 | g8 f4 d4 | d4 e4 (f4 d4 | _e8) d4 f4 | e4 ^f4 g8 | %33
w: |Ve- ni-|te, mit- ta- mus|li- gnum,|ve-|ni- te, mit-|ta- mus li\- *|* gnum in|pa- nem e-|
 ^f4 g4 g4 g4 | =f12 f4 | f8 f4 d4 | g8 (d6 e2 | f4) d4 _e4 d4 | d16 || z8 G8- | G4 G4 d6 d2 | %41
w: ius, et e- ra-|da- mus|e- um de|ter- ra\- *|* vi- ven- ti-|um.|O-|* mnes i- ni-|
 c4 A4 G8 | d8 z4 d4 | d4 d4 c4 f4- | f4 f4 !courtesy!=e4 d4 | c4 B4 A8 | d8 z4 d4 | d4 d4 _e8- | %48
w: mi- ci me-|i ad-|ver- sum me co\-|* gi- ta- bant|ma- la mi-|hi: ver-|bum i- ni\-|
 e8 d4 g4- | g4 g4 g8 | f4 d4 f6 f2 | f4 e4 (f6 e2 | d16) | G16 || z16 | G8 d8 | B4 G4 A4 A4 | %57
w: * quum man\-|* da- ve-|runt ad- ver- sum|me, di- cen\- *||tes:||Ve- ni-|te, mit- ta- mus|
 B8 A8 | z8 z4 d4 | g8 f4 d4 | d4 e4 (f4 d4 | _e8) d4 f4 | e4 ^f4 g8 | ^f4 g4 g4 g4 | f12 f4 | %65
w: li- gnum,|ve-|ni- te, mit-|ta- mus li\- *|* gnum in|pa- nem e-|ius, et e- ra-|da- mus|
 f8 f4 d4 | g8 (d6 e2 | f4) d4 _e4 d4 | d16 |] %69
w: e- um de|ter- ra\- *|* vi- ven- ti-|um.|
V:4
 G,16 | D,8 G,8- | G,4 G,4 G,8 | F,8 B,4 B,4 | A,8 z8 |[M:4/2] D12 C4 | B,4 A,4 G,4 F,4 | %7
w: E-|ram qua\-|* si a-|gnus in- no-|cens:|du- ctus|sum ad im- mo-|
 !courtesy!=E,8 D,8 | z16 | z8 z4 G,4 | B,4 F,4 G,8 | D,8 z8 | z16 | z4 G,4 D6 D2 | D4 D4 C8 | %15
w: lan- dum,||et|ne- sci- e-|bam:||con- si- li-|um fe- ce-|
 D8 z8 | z16 | z16 | z4 G,4 =B,4 C4 | D4 D4 B,8 | A,8 z4 D,4 | F,4 G,4 A,4 A,4 | (G,6 F,2 _E,8) | %23
w: runt|||ad- ver- sum|me, di- cen-|tes, ad-|ver- sum me, di-|cen\- * *|
 D,16 || z16 | z8 D,8 | G,8 F,4 D,4 | (D,4 E,4 F,4) D,4 | _E,8 D,8 | z16 | z16 | z8 z4 D4 | %32
w: tes:||Ve-|ni- te, mit-|ta\- * * mus|li- gnum|||in|
 ^C4 D4 G,8 | D4 G,4 G,4 G,4 | B,12 B,4 | F,8 B,8 | z4 G,4 B,8 | F,4 G,4 C,4 D,4 | G,16 || %39
w: pa- nem e-|ius: et e- ra-|da- mus|e- um|de ter-|ra vi- ven- ti-|um.|
[M:4/2] z16 | z16 | z16 | z16 | z16 |[M:4/2] z16 | z16 | z16 | z16 | z16 |[M:4/2] z16 | z16 | z16 | %52
w: |||||||||||||
 z16 | z16 ||[M:4/2] z16 | z8 D,8 | G,8 F,4 D,4 | (D,4 E,4 F,4) D,4 | _E,8 D,8 | z16 | z16 | %61
w: |||Ve-|ni- te, mit-|ta\- * * mus|li- gnum|||
 z8 z4 D4 | ^C4 D4 G,8 | D4 G,4 G,4 G,4 | B,12 B,4 | F,8 B,8 | z4 G,4 B,8 | F,4 G,4 C,4 D,4 | %68
w: in|pa- nem e-|ius: et e- ra-|da- mus|e- um|de ter-|ra vi- ven- ti-|
 G,16 |] %69
w: um.|

